images/footer-twiter.svg

<svg width="24" height="20" viewBox="0 0 24 20" fill="none" xmlns="http://www.w3.org/2000/svg">
<path d="M24 2.55699C23.117 2.94899 22.168 3.21299 21.172 3.33199C22.189 2.72299 22.97 1.75799 23.337 0.607986C22.386 1.17199 21.332 1.58199 20.21 1.80299C19.313 0.845986 18.032 0.247986 16.616 0.247986C13.437 0.247986 11.101 3.21399 11.819 6.29299C7.728 6.08799 4.1 4.12799 1.671 1.14899C0.381 3.36199 1.002 6.25699 3.194 7.72299C2.388 7.69699 1.628 7.47599 0.965 7.10699C0.911 9.38799 2.546 11.522 4.914 11.997C4.221 12.185 3.462 12.229 2.69 12.081C3.316 14.037 5.134 15.46 7.29 15.5C5.22 17.123 2.612 17.848 0 17.54C2.179 18.937 4.768 19.752 7.548 19.752C16.69 19.752 21.855 12.031 21.543 5.10599C22.505 4.41099 23.34 3.54399 24 2.55699Z" fill="white"/>
</svg>

<svg width="24" height="20" fill="none" xmlns="http://www.w3.org/2000/svg"><path d="M24 2.56c-.88.39-1.83.65-2.83.77A4.93 4.93 0 0 0 23.34.61c-.95.56-2 .97-3.13 1.2a4.92 4.92 0 0 0-8.4 4.48C7.74 6.1 4.1 4.13 1.68 1.15A4.93 4.93 0 0 0 3.2 7.72a4.9 4.9 0 0 1-2.23-.61A4.93 4.93 0 0 0 4.92 12c-.69.19-1.45.23-2.22.08a4.93 4.93 0 0 0 4.6 3.42A9.9 9.9 0 0 1 0 17.54a13.94 13.94 0 0 0 7.55 2.21c9.14 0 14.3-7.72 14-14.64.95-.7 1.79-1.57 2.45-2.55Z" fill="#fff"/></svg>
